libs/ui/packages/crypto-icons/src/svg/ZILLA.svg

<svg width="24" height="24" viewBox="0 0 24 24" fill="none">
<path d="M11.6289 4.48105C11.5599 4.77355 11.3529 5.69605 11.2584 6.31405C11.2209 6.56755 11.0634 6.9058 11.5029 7.08805C11.4024 7.10755 11.3716 7.1203 11.3401 7.11355C11.0266 7.07455 10.7064 7.02955 10.3929 6.99055C10.3239 6.9838 10.2361 6.97105 10.1731 7.0033C9.75314 7.22455 9.56564 7.75105 9.77789 8.19955C9.89789 8.45305 9.93539 8.68705 9.88514 8.95405C9.87874 9.02323 9.89173 9.09283 9.92264 9.15505C10.1671 9.75355 10.2114 10.3513 10.0164 10.9753C9.98489 11.0728 10.0044 11.1905 10.0104 11.294C10.0231 11.4958 10.0351 11.6975 10.0539 11.8985C9.74639 11.6518 9.40889 11.4305 9.15089 11.1313C9.02262 10.9806 8.92554 10.806 8.86529 10.6175C8.80504 10.429 8.78281 10.2304 8.79989 10.0333C8.80589 9.9553 8.74364 9.8638 8.69339 9.79255C8.54864 9.57805 8.37989 9.38305 8.26064 9.15505C8.09114 8.8303 7.88414 8.6938 7.54514 8.79805C7.37639 8.8498 7.21889 8.96005 7.07489 9.07105C6.94964 9.16105 6.84239 9.2788 6.72989 9.38305C6.71714 9.36955 6.69839 9.3568 6.68639 9.34405C6.70514 9.2983 6.71114 9.24655 6.73664 9.2008C6.91214 8.87605 6.90539 8.88205 6.66164 8.60905C6.19064 8.08255 5.78264 7.51705 5.60714 6.80155C5.51939 6.44455 5.41214 6.0928 5.31914 5.7418C4.84814 6.3268 4.78589 8.4343 5.25014 9.26605C5.10539 8.53105 4.96139 7.8358 5.12414 7.1203C5.15564 7.28305 5.17439 7.43905 5.18114 7.6018C5.20589 8.18005 5.34389 8.7268 5.58839 9.2398C5.63864 9.35005 5.78339 9.4153 5.88989 9.4933C5.92739 9.51955 5.97764 9.5323 6.02114 9.5518C6.01514 9.57805 6.01514 9.6043 6.00839 9.62305C5.77664 9.6103 5.55089 9.58405 5.31839 9.57805C5.16839 9.5713 4.99289 9.5323 4.87364 9.59755C4.71614 9.68155 4.59089 9.84505 4.50314 10.007C4.47839 10.052 4.60364 10.2343 4.69814 10.3063C4.94864 10.4945 5.11814 10.7023 5.08064 11.0533C5.07389 11.138 5.16839 11.288 5.25014 11.3203C5.47514 11.405 5.53814 11.5738 5.57564 11.7883C5.60114 11.9248 5.61989 12.1003 5.70764 12.1783C5.98964 12.4385 6.07739 12.7505 6.08414 13.1278C6.09014 13.3678 6.21539 13.6153 6.18464 13.8493C6.15914 14.051 6.19664 14.2003 6.27839 14.3173H6.27239L6.29114 14.3368C6.34139 14.4148 6.41039 14.4793 6.49139 14.5385L6.65489 14.6945C6.65489 14.6945 6.93689 14.9998 6.94289 15.299C6.94964 15.5983 6.92414 15.6365 7.01189 15.9035C7.10039 16.1638 7.21889 16.3716 7.25714 16.5928C7.29464 16.814 7.21289 16.8785 7.34489 17.0218C7.47614 17.1643 7.62089 17.2618 7.77089 17.4253C7.91564 17.5941 8.12264 17.6525 8.26064 17.7958C8.39864 17.9383 8.61764 18.2053 8.78714 18.3741C8.87489 18.4656 8.99414 18.5368 9.08189 18.5885C9.10739 18.6148 9.11939 18.6275 9.11339 18.641C8.99414 18.9005 9.23864 18.8946 9.33314 18.9785C9.49589 19.1218 9.72839 19.2125 9.84689 19.388C10.0606 19.7068 10.3366 19.8696 10.6816 19.9671C10.7131 19.9738 10.7506 19.9798 10.7626 19.9993C10.8069 20.0518 10.8376 20.1163 10.8759 20.1748C10.8631 20.1943 10.8444 20.2138 10.8316 20.2333C11.1766 20.357 11.5216 20.4868 11.8666 20.6038C11.9356 20.6301 12.0241 20.63 12.0864 20.6113C12.3751 20.5138 12.6639 20.4088 12.9519 20.3053C13.0081 20.2858 13.0959 20.2273 13.0899 20.201C13.0464 19.9933 13.2151 20.0255 13.3096 19.9738C13.5346 19.85 13.7986 19.7593 13.9681 19.5838C14.1751 19.3625 14.3634 19.1345 14.6394 18.9853C14.7519 18.92 14.9776 18.8945 14.8644 18.6478C14.8584 18.6343 14.9214 18.5826 14.9529 18.5503C14.9964 18.5106 15.0466 18.4783 15.1096 18.4265C15.1531 18.4071 15.2034 18.374 15.2851 18.3155C15.5402 18.106 15.7773 17.8755 15.9939 17.6263C16.1439 17.438 16.3891 17.204 16.3891 17.204C16.3891 17.204 16.2316 16.8335 16.3329 16.508L16.8654 16.112C16.9786 15.8713 17.0101 15.7798 17.1354 15.533C17.2546 15.2855 17.2854 14.8115 17.4556 14.6225C17.6056 14.4605 17.7879 14.33 17.7811 14.2265C17.8206 14.1161 17.8334 13.9979 17.8186 13.8815C17.8006 13.7128 17.8561 13.5365 17.8756 13.3678C17.8884 13.2253 17.8756 13.082 17.9131 12.9455C17.9761 12.7243 18.0196 12.4648 18.1576 12.308C18.3076 12.1393 18.4089 11.99 18.4276 11.762C18.4464 11.567 18.5214 11.411 18.7164 11.3195C18.8101 11.2745 18.9039 11.1185 18.9039 11.0143C18.8979 10.7218 18.9916 10.514 19.2301 10.358C19.2991 10.313 19.3501 10.2343 19.4184 10.1825C19.5309 10.0978 19.5129 10.0003 19.4499 9.89005C19.2871 9.59755 19.0419 9.4933 18.7164 9.55255C18.4711 9.59755 18.1014 9.62305 17.9694 9.62305C17.8381 9.62305 17.9319 9.52555 17.9319 9.52555C18.3961 9.5128 18.4524 9.12955 18.5589 8.81755C18.6474 8.5573 18.6969 8.2843 18.7411 8.0113C18.7854 7.75105 18.7854 7.6273 18.8349 7.2238C18.8851 6.82105 19.0044 8.00455 18.8161 8.97355C19.1926 8.4013 19.0734 6.3268 18.6534 5.7163C18.6406 5.72905 18.6279 5.7358 18.6279 5.74855C18.6091 5.82655 18.5971 5.90455 18.5784 5.98255C18.3961 6.97705 18.0196 7.86805 17.3236 8.5963C17.0664 8.86255 17.0791 8.8693 17.2546 9.21355C17.2734 9.24655 17.2734 9.29155 17.2794 9.3373C17.1294 9.26605 17.0169 9.1618 16.9036 9.0643C16.8048 8.9688 16.6877 8.89426 16.5593 8.84515C16.4309 8.79605 16.294 8.7734 16.1566 8.77855C15.8566 8.77855 15.7741 8.99905 15.6864 9.21355C15.5236 9.60355 15.1411 9.8443 15.1284 10.3648C15.1096 11.1253 14.4324 11.5085 13.9929 12.0155C13.9869 12.023 13.9681 12.0095 13.9426 12.0095C13.9366 11.9833 13.9179 11.951 13.9239 11.9248C13.9239 11.4568 14.0499 10.982 13.8429 10.5335C13.8301 10.5073 13.8361 10.4683 13.8429 10.4428C13.9239 9.7858 13.9996 9.13555 14.0874 8.4853C14.0994 8.4013 14.1436 8.3233 14.1811 8.2453C14.4009 7.7773 14.2374 7.24405 13.7926 7.01005C13.7377 6.98514 13.6769 6.97605 13.6171 6.9838C13.3719 7.01605 13.1341 7.0618 12.8956 7.09405C12.7756 7.11355 12.6511 7.11355 12.5319 7.1203C12.5251 7.1008 12.5191 7.0813 12.5131 7.0678C12.7134 7.0033 12.8139 6.8803 12.7704 6.65905L12.3181 4.40905C12.3061 4.35055 12.2934 4.05805 12.3624 4.20805C12.4314 4.36405 12.6511 5.03305 12.7764 5.45605C12.8956 5.86555 12.9894 6.28855 13.0959 6.70405C12.9204 5.5408 12.6511 4.40905 11.9859 3.37555C11.8088 3.59743 11.6672 3.84536 11.5659 4.11055C11.4045 4.58379 11.254 5.06067 11.1144 5.5408C11.0079 5.9113 10.7319 6.63955 10.8511 6.6583C10.9696 6.67855 11.5531 4.4938 11.5906 4.3378C11.6281 4.1818 11.6979 4.1878 11.6281 4.4803L11.6289 4.48105Z" fill="#00004D"/>
</svg>

<svg width="24" height="24" viewBox="0 0 24 24" fill="none"><path fill="#00004d" d="M11.629 4.481a29 29 0 0 0-.37 1.833c-.038.254-.196.592.244.774-.1.02-.131.032-.163.026-.313-.04-.634-.084-.947-.123-.07-.007-.157-.02-.22.012A.914.914 0 0 0 9.778 8.2c.12.253.157.487.107.754a.4.4 0 0 0 .038.201c.244.599.288 1.196.093 1.82-.031.098-.012.216-.006.319q.017.303.044.604c-.308-.246-.645-.467-.903-.767a1.5 1.5 0 0 1-.351-1.098c.006-.078-.056-.17-.107-.24-.144-.215-.313-.41-.432-.638-.17-.325-.377-.461-.716-.357-.169.052-.326.162-.47.273-.125.09-.233.208-.345.312-.013-.013-.032-.026-.044-.039.02-.046.025-.097.05-.143.176-.325.17-.319-.074-.592-.471-.526-.88-1.092-1.055-1.807-.088-.357-.195-.71-.288-1.06-.47.585-.533 2.692-.069 3.524-.145-.735-.289-1.43-.126-2.146.032.163.05.319.057.482a4.2 4.2 0 0 0 .407 1.638c.05.11.195.175.302.253.037.027.088.04.131.059-.006.026-.006.052-.013.071-.231-.013-.457-.039-.69-.045-.15-.007-.325-.046-.444.02-.158.084-.283.247-.37.409-.026.045.1.227.194.3.25.188.42.395.383.746-.007.085.087.235.17.267.224.085.287.254.325.468.025.137.044.312.132.39.282.26.37.572.376.95.006.24.131.487.1.721-.025.202.013.351.094.468h-.006l.02.02c.05.078.118.142.2.202l.163.155s.282.306.288.605c.007.3-.019.338.069.604.088.26.207.469.245.69s-.044.285.088.429c.131.142.276.24.426.403.145.17.352.227.49.37s.357.41.526.58c.088.09.207.162.295.213.025.027.037.04.031.053-.119.26.126.254.22.338.163.143.395.233.514.409.214.319.49.482.835.58.031.006.069.012.08.031.045.053.076.117.114.176-.013.02-.032.039-.044.058.345.124.69.254 1.035.37a.37.37 0 0 0 .22.008c.288-.097.577-.202.865-.306.056-.02.144-.078.138-.104-.044-.208.125-.175.22-.227.225-.124.489-.215.658-.39.207-.221.395-.45.671-.599.113-.065.339-.09.225-.337-.006-.014.057-.065.089-.098.043-.04.094-.072.157-.123.043-.02.093-.053.175-.111q.383-.315.709-.69c.15-.188.395-.422.395-.422s-.157-.37-.056-.696l.532-.396c.114-.24.145-.332.27-.579.12-.247.15-.721.32-.91.15-.162.333-.293.326-.396a.75.75 0 0 0 .038-.345c-.018-.17.037-.345.057-.514.012-.143 0-.286.037-.423.063-.22.107-.48.245-.637.15-.169.25-.318.27-.546.018-.195.093-.351.288-.443a.4.4 0 0 0 .188-.305c-.006-.292.088-.5.326-.656.07-.045.12-.124.188-.176.113-.084.095-.182.032-.292-.163-.292-.408-.397-.734-.337-.245.045-.615.07-.747.07-.13 0-.037-.097-.037-.097.464-.013.52-.396.627-.708.088-.26.138-.534.182-.807.044-.26.044-.384.094-.787s.17.78-.019 1.75c.377-.573.257-2.647-.163-3.258-.012.013-.025.02-.025.033-.019.078-.03.156-.05.234-.182.994-.558 1.885-1.254 2.613-.258.267-.245.273-.07.618.02.033.02.078.025.123-.15-.07-.262-.175-.375-.273a1.02 1.02 0 0 0-.747-.285c-.3 0-.383.22-.47.435-.163.39-.546.63-.559 1.15-.018.761-.696 1.144-1.135 1.651-.006.008-.025-.006-.05-.006-.006-.026-.025-.058-.02-.084 0-.468.127-.943-.08-1.392-.013-.026-.007-.065 0-.09.08-.657.157-1.307.244-1.958.012-.084.057-.162.094-.24.22-.468.056-1-.388-1.235a.3.3 0 0 0-.176-.026c-.245.032-.483.078-.721.11-.12.02-.245.02-.364.026q-.01-.031-.019-.052c.2-.065.3-.188.257-.409l-.452-2.25c-.012-.058-.025-.351.044-.2.07.155.29.824.414 1.247.12.41.213.833.32 1.248-.176-1.163-.445-2.295-1.11-3.328-.177.221-.319.47-.42.735a33 33 0 0 0-.452 1.43c-.106.37-.382 1.099-.263 1.117.119.02.702-2.164.74-2.32.037-.156.107-.15.037.142z"/></svg>
